packages/core/src/svgs/tokens/branded/SRX.svg

<svg width="24" height="24" viewBox="0 0 24 24" fill="none" xmlns="http://www.w3.org/2000/svg">
<path d="M7.55528 9.50007V4.50002L3.11084 7.00001L7.55528 9.50007Z" fill="#A62222"/>
<path d="M7.55528 14.5V9.50006L3.11084 12L7.55528 14.5Z" fill="#EE8622"/>
<path d="M7.55528 19.4999V14.5L3.11084 17L7.55528 19.4999Z" fill="#A62222"/>
<path d="M20.889 17V12L16.4445 14.5L20.889 17ZM16.4445 14.5V9.50006L12 12L16.4445 14.5ZM16.4445 19.5V14.5L12 17L16.4445 19.5Z" fill="#E23C25"/>
<path d="M11.9996 22V17L7.55518 19.5L11.9996 22Z" fill="#EE8622"/>
<path d="M20.8893 12V7.00003L16.4448 9.50008L20.8893 12Z" fill="#FAC211"/>
<path d="M11.9996 7.00001V2L7.55518 4.50001L11.9996 7.00001Z" fill="#EE8622"/>
<path d="M7.55518 9.50007V4.50002L11.9996 7.00001L7.55518 9.50007Z" fill="#E23C25"/>
<path d="M7.55518 14.5V9.50006L11.9996 12L7.55518 14.5ZM11.9996 22V17L16.4441 19.5L11.9996 22Z" fill="#FAC211"/>
<path d="M3.11084 12V7.00003L7.55528 9.50008L3.11084 12ZM3.11084 17.0001V12L7.55528 14.5L3.11084 17.0001Z" fill="#E23C25"/>
<path d="M12 7.00001V2L16.4445 4.50001L12 7.00001Z" fill="#FAC211"/>
<path d="M16.4448 9.50007V4.50002L20.8893 7.00001L16.4448 9.50007ZM16.4448 14.5V9.50007L20.8893 12L16.4448 14.5Z" fill="#EE8622"/>
<path d="M16.4448 19.4999V14.5L20.8893 17L16.4448 19.4999Z" fill="#A62222"/>
</svg>

<svg xmlns="http://www.w3.org/2000/svg" width="24" height="24" fill="none" viewBox="0 0 24 24">
    <path fill="#A62222" d="M7.555 9.5v-5L3.111 7z"/>
    <path fill="#EE8622" d="M7.555 14.5v-5L3.111 12z"/>
    <path fill="#A62222" d="M7.555 19.5v-5L3.111 17z"/>
    <path fill="#E23C25" d="M20.889 17v-5l-4.444 2.5zm-4.444-2.5v-5L12 12zm0 5v-5L12 17z"/>
    <path fill="#EE8622" d="M12 22v-5l-4.445 2.5z"/>
    <path fill="#FAC211" d="M20.89 12V7l-4.445 2.5z"/>
    <path fill="#EE8622" d="M12 7V2L7.555 4.5z"/>
    <path fill="#E23C25" d="M7.555 9.5v-5L12 7z"/>
    <path fill="#FAC211" d="M7.555 14.5v-5L12 12zM12 22v-5l4.444 2.5z"/>
    <path fill="#E23C25" d="M3.11 12V7l4.445 2.5zm0 5v-5l4.445 2.5z"/>
    <path fill="#FAC211" d="M12 7V2l4.445 2.5z"/>
    <path fill="#EE8622" d="M16.445 9.5v-5L20.889 7zm0 5v-5l4.444 2.5z"/>
    <path fill="#A62222" d="M16.445 19.5v-5l4.444 2.5z"/>
</svg>
